X:1
T:Franklin, 86.86.86
T:Franklin, 86.86.86
T:Cornish Tune
T:Public Domain Courtesy of the Cyber Hymnal™
C:Cornish Tune
Z:Public Domain
Z:Courtesy of the Cyber Hymnal™
%%score ( 1 2 ) ( 3 4 )
L:1/8
Q:1/4=103
M:2/4
K:C
V:1 treble 
V:2 treble 
V:3 bass 
V:4 bass 
V:1
 [Gc] | [Gc]2 ([EG]>[DF]) | (E[DG]) ([Ec][Ge]) | [Fd]2 [DB]2 | [Ec]3 A | [EG]2 [Ec]2 | [Ad]2 B2 | %7
 [Ec]3 [Gd] | d3 z c | cB (BA) | G2 z x2 | [CE]2 [EG]2 | [FA]2 [CG]2 | [FB]2 [Ec]2 | %14
 !fermata![DB]3 [DG] | E2 [CG]2 | (A>G) (A[FB]) | (c>B) (c[Ad]) | [Ge]2 [Gc]2 | (BA) (dc) | %20
 [Gc]2 [GB]2 | [Gc]2 z |] %22
V:2
 x | x4 | E x3 | x4 | x3 (C/D/) | x4 | x2 (GF) | x4 | G2 ^F2 x | G2 D2 | (EC) (F2 B,) | x4 | x4 | %13
 x4 | x4 | E2 x2 | C3 x | E3 x | x4 | F2 A2 | x4 | x3 |] %22
V:3
 [C,E] | [C,E]2 ([E,C]>[G,B,]) | C[B,D] C2 | [F,A,]2 G,2 | [C,G,]3 (A,/B,/) | [E,C]2 [A,C]2 | %6
 [F,F]2 [G,D]2 | [C,C]3 [G,B,] | [G,B,]2 (A,D) x | [G,,D]2 B,2 | [E,C]2 [D,F,]2 x | %11
 [C,G,]2 [C,C]2 | [F,C]2 [E,C]2 | [D,D]2 [C,G,]2 | !fermata![G,,G,]3 [G,B,] | C2 [E,C]2 | %16
 C3 [D,D] | [A,C]>[^G,D] ([A,C]A,/B,/) | C2 [E,C]2 | [F,C]2 [^F,D]2 | (DE) [G,,F]2 | [C,E]2 z |] %22
V:4
 x | x4 | (CA, E,) x | x2 G,2 | x3 F, | x4 | x4 | x4 | x2 D,2 x | x2 (G,F,) | x5 | x4 | x4 | x4 | %14
 x4 | C2 x2 | (F,>E,) F, x | x3 F, | C2 x2 | x4 | G,2 x2 | x3 |] %22

